project/porshe/images/work/icon-work03.svg

<svg width="30" height="29" viewBox="0 0 30 29" fill="none" xmlns="http://www.w3.org/2000/svg">
<path d="M14.5006 19.2954C17.1492 19.2954 19.2967 17.148 19.2967 14.4994C19.2967 11.8508 17.1492 9.70337 14.5006 9.70337C11.852 9.70337 9.70459 11.8508 9.70459 14.4994C9.70459 17.148 11.852 19.2954 14.5006 19.2954Z" fill="white"/>
<path fill-rule="evenodd" clip-rule="evenodd" d="M25.6997 12.8885C24.9917 7.93015 21.0803 4.01611 16.1246 3.30292V1.41591C16.1246 0.633365 15.4141 0 14.5386 0H14.464C13.5886 0 12.878 0.633365 12.878 1.41591V3.30292C7.92099 4.01611 4.01087 7.93015 3.30292 12.8885H1.35572C0.607193 12.8885 0 13.5794 0 14.4326V14.5661C0 15.4193 0.607193 16.1102 1.35572 16.1102H3.30292C4.01218 21.0725 7.92884 24.9891 12.8911 25.6984V27.6534C12.8911 28.3967 13.582 29 14.4352 29H14.57C15.4232 29 16.1142 28.3967 16.1142 27.6534V25.6984C21.0764 24.9904 24.993 21.0738 25.7023 16.1102H27.588C28.3706 16.1102 29.0039 15.4193 29.0039 14.5661V14.4326C29.0039 13.5794 28.3706 12.8885 27.588 12.8885H25.6997ZM14.5006 22.648C10.0003 22.648 6.35193 18.9996 6.35193 14.4993C6.35193 9.99898 10.0003 6.35059 14.5006 6.35059C19.0009 6.35059 22.6493 9.99898 22.6493 14.4993C22.6493 18.9996 19.0009 22.648 14.5006 22.648Z" fill="white"/>
</svg>

<svg width="30" height="29" fill="none" xmlns="http://www.w3.org/2000/svg"><path d="M14.5 19.295a4.796 4.796 0 100-9.592 4.796 4.796 0 000 9.592z" fill="#fff"/><path fill-rule="evenodd" clip-rule="evenodd" d="M25.7 12.889a11.315 11.315 0 00-9.575-9.586V1.416c0-.783-.71-1.416-1.586-1.416h-.075c-.875 0-1.586.633-1.586 1.416v1.887a11.314 11.314 0 00-9.575 9.585H1.356C.607 12.889 0 13.58 0 14.434v.133c0 .853.607 1.544 1.356 1.544h1.947a11.318 11.318 0 009.588 9.588v1.955c0 .744.691 1.347 1.544 1.347h.135c.853 0 1.544-.603 1.544-1.347v-1.955a11.315 11.315 0 009.588-9.588h1.886c.783 0 1.416-.69 1.416-1.544v-.133c0-.854-.633-1.544-1.416-1.544H25.7zm-11.2 9.759a8.149 8.149 0 110-16.298 8.149 8.149 0 010 16.298z" fill="#fff"/></svg>
